X: 3055
T: The HIGHLAND MINSTREL BOY
Q:"Strathspey."
R: Strathspey.
%R:strathspey, shottish
B: James Kerr "Merry Melodies" v.3 p.8 #55
Z: 2016 John Chambers <jc:trillian.mit.edu>
M: C
L: 1/16
K: G
uG3uA |\
vB3vGuD3uG E3GD3G | EA3 A3G FA3 d3c |\
B3GD3G E3GD3G | DG3 B3A G4 |
|: G3A |\
B3cd3B A3GE3D | EA3 A3G FA3 d3c |\
c3BA3G GE3 D3E | DG3 B3A G4 :|

%%sep 1 1 500
%%sep 1 1 500

